X:17
T:ROUGH DIAMOND -- JIG.
R:jig
N:Version of Saddle the Pony
B:Coles pg 65.1
Z:John B. Walsh, <walsh:mat:h.ubc.ca> 5/19/02
M:6/8
L:1/8
K:G
vG(MBA) G2B|def geB|A(MBA) G2B|ABA AFD|
G(MBA) G2B|def gdB|"4"ecA dBG|FDF G3:|
kvd3 dcB|def gdB|kd3 dcA|ABA AFD|
kd3 dcB|def gdB|"4"ecA dBG|FDF G3:|
